X:1
T:Title
%%score { ( 1 3 ) | ( 2 4 ) }
L:1/8
M:4/4
K:Ab
V:1 bass nm="Grand Piano"
V:3 bass 
V:2 bass 
V:4 bass 
V:1
 z4 z2[Q:1/4=96] [E,A,C][E,B,D] | [A,CE]2 [B,DE]2 [CEA]2 [CA][DB] | c2 c2 z4 | c2 Bc d2 G2 | %4
[M:3/4] [A,CA]6 |[M:1/4][K:bass] [E,A,C][E,B,D] | %6
[M:4/4][K:treble] [A,CE]2 [B,DE]2 [CEA]2 [CA][DB] | c2 c2 z4 | [EB]2 [EB]2 [=Dc]2 [A=d]2 | %9
[M:3/4] [Ge]6 |[M:1/4] [Ge][Fd] |[M:4/4] c2 c2 z4 | A2 A2 z4 | [CE]2 [CA]2 c2 [Ee]2 | %14
[M:3/4] [Ge]4 B2 |[M:1/4] cd |[M:4/4] e2 e2 e2 AB |[M:9/8] c2 c- c [=Ec]2- [Ec][_Ed][Ed] | %18
[M:4/4] c2 e2 c2 B2 |[M:3/4] [CA]6 |] %20
V:2
 z4 z2 A,,A,, | A,,2 A,,2 A,,2 [A,,E,][A,,E,] | [A,,A,]2 [A,,A,]2 [A,,A,]2 [A,E][A,E] | %3
 [E,A,E]2 [E,E]-[E,A,E] [E,B,E]2 [E,B,D]2 |[M:3/4] A,,6 |[M:1/4] A,,A,, | %6
[M:4/4] A,,2 A,,2 A,,2 [A,,E,][A,,E,] | [A,,A,]2 [A,,A,]2 [A,,A,]2 [A,,A,][A,,A,] | %8
 [B,,G,]2 [B,,G,]2 [B,,A,]2 [B,,B,]2 |[M:3/4] [E,B,]6 |[M:1/4] [E,B,][E,G,] | %11
[M:4/4] [A,,A,]2 [A,,A,]2 [A,,A,]2 [A,,A,][C,A,] | z E z A, [D,F,D]2 [D,F,D][D,A,D] | %13
 [A,,A,]2 [A,,A,]2 [A,E]2 [C,A,]2 |[M:3/4] B,4[K:treble] [G,E]2 |[M:1/4] [A,E][A,B,E] | %16
[M:4/4] [A,CA]2 [A,DB]2 [A,CA]2[K:bass] [A,C][A,D] | %17
[M:9/8] [A,E]2 [F,A,F]- [F,A,F] [C,G,]2- [C,G,][B,,G,][B,,G,] | %18
[M:4/4] [E,A,E]2 [E,CE]2 [E,A,E]2 [E,G,D]2 |[M:3/4] [A,,A,]6 |] %20
V:3
 x8 | x8 | EAGF [Ec]2 cc | x8 |[M:3/4] x6 |[M:1/4][K:bass] x2 |[M:4/4][K:treble] x8 | %7
 EAGF [Ec]2 [Ec][Ec] | x8 |[M:3/4] x6 |[M:1/4] x2 |[M:4/4] EAGF [Ec]2 [Ec][=EB] | %12
 [DF]_G[DF]E A2 =GF | x8 |[M:3/4] x6 |[M:1/4] x2 |[M:4/4] x8 |[M:9/8] x9 |[M:4/4] x8 |[M:3/4] x6 |] %20
V:4
 x8 | x8 | x8 | z2 .G,2 z4 |[M:3/4] x6 |[M:1/4] x2 |[M:4/4] x8 | x8 | x8 |[M:3/4] x6 |[M:1/4] x2 | %11
[M:4/4] x8 | D,2 D,2 z4 | x8 |[M:3/4] E,6[K:treble] |[M:1/4] x2 |[M:4/4] x6[K:bass] x2 | %17
[M:9/8] x9 |[M:4/4] x8 |[M:3/4] x6 |] %20

